X:1
T:Czerny - The Art Oof Finger Dexterity
T:Czerny - The Art Of Finger Dexterity
T:1. Action Of The Fingers, the Hand quiet.
T:C.Czerny, Op. 740, Book 1
T:--
C:C.Czerny, Op. 740, Book 1
Z:--
%%score { ( 1 3 ) | ( 2 4 ) }
L:1/8
Q:3/4=28
M:2/2
K:C
V:1 treble nm="Piano" snm="Pno."
V:3 treble 
V:2 bass 
V:4 bass 
V:1
 z8!f! |"C" !>![ge'g']4 !>![gc'e']4 | !>![egc']6 [egc']2 | [egc']2 [egc']2 [egc']2 [egc']2 | %4
"G7" [dfbd']4 z4 |"G7" !>![gbd'f']4 !>![fgbd']4 | !>![dfgb]6 [fgbd']2 | %7
 [fgbd']2 [fgbd']2 [fgbd']2 [fgbd']2 |"C" [egc'e']2 z2 e/d/e/f/ g/f/e/d/ | %9
"C" c/d/e/f/ g/f/e/d/ c/d/e/f/ g/f/e/d/ | c/d/e/f/ g/f/e/d/ c/d/e/f/ g/f/e/d/ | %11
 c/d/e/f/ g/f/e/d/ c/d/e/f/ g/a/b/c'/ |"D7" ^f/e/f/g/ a/g/f/e/ d/e/f/g/ a/g/f/e/ | %13
 d/e/^f/g/ a/g/f/e/ d/e/f/g/ a/g/f/e/ | d/e/^f/g/ a/g/f/e/ d/e/f/g/ a/g/f/e/ | %15
 d/e/^f/g/ a/g/f/e/ d/e/f/g/ a/b/c'/d'/ |"G" b/!>(!c'/d'/c'/ b/a/g/a/ b/c'/d'/c'/ b/a/g/a/!>)! | %17
!p! b/c'/d'/c'/ b/a/g/a/ b/c'/d'/c'/ b/a/b/g/ | %18
"D7/G"!8va(! c'/d'/e'/d'/ c'/b/a/b/ c'/d'/e'/d'/ c'/b/a/b/ | %19
"_cresc." c'/d'/e'/d'/ c'/b/a/b/ c'/d'/e'/d'/ c'/b/c'/a/ | %20
"G7" d'/e'/f'/e'/ d'/c'/b/c'/ d'/e'/f'/e'/ d'/c'/b/c'/ | %21
 d'/e'/f'/e'/ d'/c'/b/c'/ d'/e'/f'/e'/ d'/c'/d'/b/ | %22
"C7" e'/f'/g'/f'/ e'/d'/c'/d'/ e'/f'/g'/f'/ e'/d'/c'/d'/ | %23
!<(! e'/f'/g'/f'/ e'/d'/c'/d'/ e'/f'/g'/f'/ e'/d'/e'/c'/!<)! |"F"!f! [f'a']4!8va)! z4 | %25
"F" !>![cac']4 !>![cfa]4 | !>![Acf]6 [Acf]2 | [Acf]2 [Acf]2 [Acf]2 [Acf]2 |"D7" [Acd^f]8 | %29
 !>![cd^fa]4 !>![Acdf]4 | !>![^FAcd]6 [FAcd]2 | [^FAcd]2 [FAcd]2!>(! [FAcd]2 [DAc]2 | %32
"G" [DG=B]2!>)! z2"G"!p! B/A/G/A/ B/c/d/c/ | B/A/G/A/ B/c/d/c/ B/A/G/A/ B/A/B/G/ | %34
"Am""_cresc." c z z2 c/B/A/B/ c/d/e/d/ | c/B/A/B/ c/d/e/d/ c/B/A/B/ c/B/c/A/ | %36
"G7/B" !>!d z z2 d/c/B/c/ d/e/f/e/ | d/c/B/c/ d/e/f/e/ d/c/B/c/ d/c/d/B/ | %38
"C" e z z2 e/d/c/d/ e/f/g/f/ | e/d/c/d/ e/f/g/f/ e/d/c/d/ e/d/e/c/ | %40
"G7"!f! f/e/d/c/ B/c/d/e/ f/e/d/c/ B/c/d/e/ | f/e/d/c/ B/c/d/e/ f/e/d/c/ B/A/G/F/ | %42
"C" E/F/G/A/ B/c/d/e/"G" f/e/d/c/ B/A/G/F/ |"C" E/F/G/A/"G" B/c/d/e/ f/e/d/c/ B/A/G/F/ | %44
"C" E/e/d/c/ B/A/G/F/ E/F/G/F/ E/F/G/F/ |"C" E/e/d/c/ B/A/G/F/ E/F/G/F/ E/F/G/F/ | %46
 E/e/d/c/ B/A/G/F/ E/F/G/A/ B/c/d/e/ |"G7/D" F/f/e/d/ c/B/A/G/ F/G/A/B/ c/d/e/f/ | %48
"C/E" G/A/B/c/ d/e/f/g/ e/f/g/f/ e/f/g/f/ | e/g/f/e/ d/f/e/d/ c/e/d/c/ B/d/c/B/ | %50
"F" A/B/c/d/ e/f/g/a/ f/g/a/g/ f/g/a/g/ |"_dim." f/a/g/f/ e/g/f/e/ d/f/e/d/ c/e/d/c/ | %52
"G7"!p! B/c/d/e/ f/e/d/c/ B z [d'f'] z | [bd'] z [fd'] z (g2 f2) | %54
"C7" e/f/g/a/ _b/a/g/f/ e z!8va(! [g'_b'] z | [e'g'] z [_bg'] z"_cresc." (c'2 b2) | %56
"F" a/_b/c'/b/ a/b/c'/b/ a/b/c'/d'/ e'/f'/g'/a'/ | %57
"G" =b/c'/d'/c'/ b/c'/d'/c'/ b/c'/d'/e'/ f'/g'/a'/b'/ | %58
"Am" c'/d'/e'/d'/ c'/d'/e'/d'/ c'/d'/e'/f'/ g'/a'/b'/c''/ | %59
"G7/D" d'/e'/f'/e'/ d'/e'/f'/e'/ d'/e'/f'/g'/ a'/b'/c''/d''/ | %60
"C" e'/f'/g'/a'/ b'/c''/d''/e''/"G7" d'/e'/f'/g'/ a'/b'/c''/d''/ | %61
"Am" c'/d'/e'/f'/ g'/a'/b'/c''/"E7" b/c'/d'/e'/ ^f'/^g'/a'/b'/ | %62
"F" a/b/c'/d'/ e'/=f'/=g'/a'/"G" g/a/b/c'/ d'/e'/f'/g'/ | %63
"G7/C" f/g/a/b/ c'/d'/e'/f'/"C" e/f/g/a/ b/c'/d'/e'/ | %64
"Dm/F" d/e/f/g/ a/b/^c'/d'/ e'/f'/g'/a'/ g'/f'/e'/d'/ | %65
 ^c'/d'/e'/f'/ g'/f'/e'/d'/ c'/d'/e'/f'/ g'/f'/e'/d'/ | %66
"C/G" b/=c'/d'/e'/ f'/e'/d'/c'/ b/c'/d'/e'/ f'/e'/d'/c'/ | %67
"G7" ^a/b/c'/d'/ e'/d'/c'/b/ a/b/c'/d'/ e'/d'/c'/b/ |"C""_dim." c'2!8va)! z2 z4 | %69
"C" [Gceg]4 [Gce]4 | [EGc]4 z4 |"G7" [DFGB]4 [DFGB]4 |"C"!p!"_Dolcet" [EGc]8 | %73
 [gc'e'g']4 [gc'e']4 | [egc']8 |"G7" [dfgb]4 [dfbd']4 | %76
"C"!pp! [egc']2 z2"_leggierissimo" e/d/c/d/ e/f/g/f/ | e/d/c/d/ e/f/g/f/ e/d/c/d/ e/f/g/f/ | %78
 e/d/c/d/ e/f/g/f/ e/d/c/d/ e/f/g/f/ | e/d/c/d/ e/f/g/f/ e/d/c/d/ e/f/g/f/ | %80
"_cresc." e/c/d/e/ f/g/a/b/ c'/g/a/b/ c'/d'/e'/f'/ | g' z z2 [egc'e'] z z2 | !fermata![cegc']8 |] %83
V:2
 C,/D,/E,/F,/ G,/F,/E,/D,/ C,/D,/E,/F,/ G,/F,/E,/D,/ | %1
 C,/D,/E,/F,/ G,/F,/E,/D,/ C,/D,/E,/F,/ G,/F,/E,/D,/ | %2
 C,/D,/E,/F,/ G,/F,/E,/D,/ C,/D,/E,/F,/ G,/F,/E,/D,/ | %3
 C,/D,/E,/F,/ G,/F,/E,/D,/ C,/D,/E,/F,/ G,/A,/B,/C/ | %4
 G,/A,/B,/C/ D/C/B,/A,/ G,/A,/B,/C/ D/C/B,/A,/ | G,/A,/B,/C/ D/C/B,/A,/ G,/A,/B,/C/ D/C/B,/A,/ | %6
 G,/A,/B,/C/ D/C/B,/A,/ G,/A,/B,/C/ D/C/B,/A,/ | G,/A,/B,/C/ D/C/B,/A,/ G,/A,/B,/C/ D/C/B,/A,/ | %8
[K:treble] C/D/E/F/ G/F/E/D/ C2 z2 |[K:bass] !>![G,CE]4 !>![E,G,C]4 | !>![C,E,G,]6 [C,E,G,]2 | %11
 [C,E,G,]2 [C,E,G,]2 [C,E,G,]2 [C,E,G,]2 |[K:treble] !>![A,CD^F]4 z4 | !>![^FAc]4 !>![CDFA]4 | %14
 !>![A,CD^F]6[K:bass] [^F,A,CD]2 | [^F,A,CD]2 [F,A,CD]2 [F,A,CD]2 [F,A,CD]2 | [G,B,D]8 | %17
 G,, z B,, z D, z G, z | [G,,A,,C,^F,]8 | G,, z A,, z C, z ^F, z | [G,,B,,D,F,]8 | %21
 G,, z B,, z D, z F, z | [C,E,G,_B,]4 z4 | C, z E, z G, z _B, z | %24
 F,/G,/A,/_B,/ C/B,/A,/G,/ F,/G,/A,/B,/ C/B,/A,/G,/ | %25
 F,/G,/A,/_B,/ C/B,/A,/G,/ F,/G,/A,/B,/ C/B,/A,/G,/ | %26
 F,/G,/A,/_B,/ C/B,/A,/G,/ F,/G,/A,/B,/ C/B,/A,/G,/ | %27
 F,/G,/A,/_B,/ C/B,/A,/G,/ F,/G,/A,/B,/ C/A,/F,/_E,/ | %28
 D,/=E,/^F,/G,/ A,/G,/F,/E,/ D,/=E,/F,/G,/ A,/G,/F,/E,/ | %29
 D,/=E,/^F,/G,/ A,/G,/F,/E,/ D,/=E,/F,/G,/ A,/G,/F,/E,/ | %30
 D,/=E,/^F,/G,/ A,/G,/F,/E,/ D,/=E,/F,/G,/ A,/G,/F,/E,/ | %31
 D,/=E,/^F,/G,/ A,/G,/F,/E,/ D,/E,/F,/G,/ A,/D,/E,/F,/ | %32
 G,/A,/B,/C/ D/C/B,/A,/ G,/A,/B,/C/ D/C/B,/A,/ | G,/A,/B,/C/ D/C/B,/A,/ G,/A,/B,/C/ D/C/D/B,/ | %34
 A,/B,/C/D/ E/D/C/B,/ A,/B,/C/D/ E/D/C/B,/ | A,/B,/C/D/ E/D/C/B,/ A,/B,/C/D/ E/D/E/C/ | %36
[K:treble] B,/C/D/E/ =F/E/D/C/ B,/C/D/E/ F/E/D/C/ | B,/C/D/E/ F/E/D/C/ B,/C/D/E/ F/E/F/D/ | %38
 C/D/E/F/ G/F/E/D/ C/D/E/F/ G/F/E/D/ | C/D/E/F/ G/F/E/D/ C/D/E/F/ G/F/G/E/ | %40
[K:bass] D/C/B,/A,/ G,/A,/B,/C/ D/C/B,/A,/ G,/A,/B,/C/ | %41
 D/C/B,/A,/ G,/A,/B,/C/ D/C/B,/A,/ G,/F,/E,/D,/ | %42
 C,/D,/E,/F,/ G,/A,/B,/C/ D/C/B,/A,/ G,/F,/E,/D,/ | %43
 C,/D,/E,/F,/ G,/A,/B,/C/ D/C/B,/A,/ G,/F,/E,/D,/ | %44
 C,/C/B,/A,/ G,/F,/E,/D,/ C,/D,/E,/D,/ C,/D,/E,/D,/ | %45
 C,/C/B,/A,/ G,/F,/E,/D,/ C,/D,/E,/D,/ C,/D,/E,/D,/ | %46
 C,/C/B,/A,/ G,/F,/E,/D,/ C,/D,/E,/F,/ G,/A,/B,/C/ | %47
 D,/D/C/B,/ A,/G,/F,/E,/ D,/E,/F,/G,/ A,/B,/C/D/ | E,/F,/G,/A,/ B,/C/D/E/ C/D/E/D/ C/D/E/D/ | %49
 C/E/D/C/ B,/D/C/B,/ A,/C/B,/A,/ G,/B,/A,/G,/ | F,/G,/A,/B,/ C/D/E/F/ D/E/F/E/ D/E/F/E/ | %51
 D/F/E/D/ C/E/D/C/ B,/D/C/B,/ A,/C/B,/A,/ | G,/A,/B,/C/ D/C/B,/A,/ G,/A,/B,/C/ D/C/B,/A,/ | %53
 G,/A,/B,/C/ D/C/B,/A,/ G,/A,/B,/C/ D/E/F/G/ |[K:treble] C/D/E/F/ G/F/E/D/ C/D/E/F/ G/F/E/D/ | %55
 C/D/[Ec]/F/ G/F/E/D/ C/D/E/F/ G/A/_B/c/ | F/G/A/G/ F/G/A/G/ F/G/A/_B/ c/d/e/f/ | %57
 G/A/=B/A/ G/A/B/A/ G/A/B/c/ d/e/f/g/ | A/B/c/B/ A/B/c/B/ A/B/c/d/ e/f/g/a/ | %59
 B/c/d/c/ B/c/d/c/ B/c/d/e/ f/g/a/b/ | [ceg] z z2 [GBf] z z2 | [Ace] z z2 [E^Gd] z z2 | %62
 [FAc] z z2 [CEc] z z2 | [B,DG] z z2 [CEG] z z2 |[K:bass] [F,A,D]8 | F,,2 A,,2 D,2 F,2 | %66
 G,,2 C,2 E,2 G,2 | G,,2 D,2 F,2 G,2 | %68
 C,,/D,,/E,,/F,,/ G,,/F,,/E,,/D,,/ C,,/D,,/E,,/F,,/ G,,/F,,/E,,/D,,/ | %69
 C,,/D,,/E,,/F,,/ G,,/F,,/E,,/D,,/ C,,/D,,/E,,/F,,/ G,,/F,,/E,,/D,,/ | %70
 C,,/D,,/E,,/F,,/ G,,/F,,/E,,/D,,/ C,,/D,,/E,,/F,,/ G,,/A,,/B,,/C,/ | %71
 G,,/A,,/B,,/C,/ D,/C,/B,,/A,,/ G,,/A,,/B,,/C,/ D,/E,/F,/G,/ | %72
 C,/D,/E,/F,/ G,/F,/E,/D,/ C,/D,/E,/F,/ G,/F,/E,/D,/ | %73
 C,/D,/E,/F,/ G,/F,/E,/D,/ C,/D,/E,/F,/ G,/F,/E,/D,/ | %74
 C,/D,/E,/F,/ G,/F,/E,/D,/ C,/D,/E,/F,/ G,/A,/B,/C/ | G,/A,/B,/C/ D/C/B,/A,/ G,/A,/B,/C/ D/E/F/G/ | %76
[K:treble] C/D/E/F/ G/F/E/D/ C/D/E/F/ G/F/E/D/ | C/D/E/F/ G/F/E/D/ C/D/E/F/ G/F/E/D/ | %78
 C/D/E/F/ G/F/E/D/ C/D/E/F/ G/F/E/D/ | C/D/E/F/ G/F/E/D/ C/D/E/F/ G/F/E/D/ | C z z2 z4 | %81
 z4[K:bass] [C,E,G,C]4 | !fermata![C,,E,,G,,C,]8 |] %83
V:3
 x8 | x8 | x8 | x8 | x8 | x8 | x8 | x8 | x8 | x8 | x8 | x8 | x8 | x8 | x8 | x8 | x8 | x8 | %18
!8va(! x8 | x8 | x8 | x8 | x8 | x8 | x4!8va)! x4 | x8 | x8 | x8 | x8 | x8 | x8 | x8 | x8 | x8 | %34
 x8 | x8 | x8 | x8 | x8 | x8 | x8 | x8 | x8 | x8 | x8 | x8 | x8 | x8 | x8 | x8 | x8 | x8 | x8 | %53
 z4 [Bd]4 | x6!8va(! x2 | z4 [eg]4 | x8 | x8 | x8 | x8 | x8 | x8 | x8 | x8 | x8 | x8 | x8 | x8 | %68
 x2!8va)! x6 | x8 | x8 | x8 | x8 | x8 | x8 | x8 | x8 | x8 | x8 | x8 | x8 | x8 | x8 |] %83
V:4
 x8 | x8 | x8 | x8 | x8 | x8 | x8 | x8 |[K:treble] x8 |[K:bass] x8 | x8 | x8 |[K:treble] x8 | x8 | %14
 x6[K:bass] x2 | x8 | x8 | x8 | x8 | x8 | x8 | x8 | x8 | x8 | x8 | x8 | x8 | x8 | x8 | x8 | x8 | %31
 x8 | x8 | x8 | x8 | x8 |[K:treble] x8 | x8 | x8 | x8 |[K:bass] x8 | x8 | x8 | x8 | x8 | x8 | x8 | %47
 x8 | x8 | x8 | x8 | x8 | x8 | x8 |[K:treble] x8 | x8 | x8 | x8 | x8 | x8 | x8 | x8 | x8 | x8 | %64
[K:bass] x8 | F,,8 | G,,8 | G,,8 | x8 | x8 | x8 | x8 | x8 | x8 | x8 | x8 |[K:treble] x8 | x8 | x8 | %79
 x8 | x8 | x4[K:bass] x4 | x8 |] %83

